images/like.svg

<?xml version="1.0" encoding="utf-8"?><!-- Uploaded to: SVG Repo, www.svgrepo.com, Generator: SVG Repo Mixer Tools -->
<svg width="800px" height="800px" viewBox="0 0 24 24" fill="none" xmlns="http://www.w3.org/2000/svg">
<path d="M8 10V20M8 10L4 9.99998V20L8 20M8 10L13.1956 3.93847C13.6886 3.3633 14.4642 3.11604 15.1992 3.29977L15.2467 3.31166C16.5885 3.64711 17.1929 5.21057 16.4258 6.36135L14 9.99998H18.5604C19.8225 9.99998 20.7691 11.1546 20.5216 12.3922L19.3216 18.3922C19.1346 19.3271 18.3138 20 17.3604 20L8 20" stroke="#000000" stroke-width="1.5" stroke-linecap="round" stroke-linejoin="round"/>
</svg>

<svg width="800" height="800" viewBox="0 0 24 24" fill="none" xmlns="http://www.w3.org/2000/svg"><path d="M8 10v10m0-10H4v10h4m0-10 5.196-6.062a2 2 0 0 1 2.003-.638l.048.012a2 2 0 0 1 1.179 3.05L14 10h4.56a2 2 0 0 1 1.962 2.392l-1.2 6A2 2 0 0 1 17.36 20H8" stroke="#000" stroke-width="1.5" stroke-linecap="round" stroke-linejoin="round"/></svg>
